dist/intermediate-svg/lock.svg

<?xml version="1.0" encoding="utf-8"?><svg width="11" height="14" fill="none" xmlns="http://www.w3.org/2000/svg" viewBox="0 0 11 14"><path d="M10 5.5h-.5V4c0-1.4-1.1-2.5-2.5-2.5H4C2.6 1.5 1.5 2.6 1.5 4v1.5H1c-.55 0-1 .45-1 1v6c0 .55.45 1 1 1h9c.55 0 1-.45 1-1v-6c0-.55-.45-1-1-1zM6 9.85v1.4c0 .15-.1.25-.25.25h-.5c-.15 0-.25-.1-.25-.25v-1.4c-.3-.15-.5-.5-.5-.85 0-.55.45-1 1-1s1 .45 1 1c0 .35-.2.7-.5.85zM7.5 5.5h-4V4c0-.25.25-.5.5-.5h3c.25 0 .5.25.5.5v1.5z" fill="#fff"/><path d="M10 5.5h-.5V4c0-1.4-1.1-2.5-2.5-2.5H4C2.6 1.5 1.5 2.6 1.5 4v1.5H1c-.55 0-1 .45-1 1v6c0 .55.45 1 1 1h9c.55 0 1-.45 1-1v-6c0-.55-.45-1-1-1zM6 9.85v1.4c0 .15-.1.25-.25.25h-.5c-.15 0-.25-.1-.25-.25v-1.4c-.3-.15-.5-.5-.5-.85 0-.55.45-1 1-1s1 .45 1 1c0 .35-.2.7-.5.85zM7.5 5.5h-4V4c0-.25.25-.5.5-.5h3c.25 0 .5.25.5.5v1.5z" fill="#fff"/><path d="M10 4.5h-.5V3C9.5 1.6 8.4.5 7 .5H4C2.6.5 1.5 1.6 1.5 3v1.5H1c-.55 0-1 .45-1 1v6c0 .55.45 1 1 1h9c.55 0 1-.45 1-1v-6c0-.55-.45-1-1-1zM6 8.85v1.4c0 .15-.1.25-.25.25h-.5c-.15 0-.25-.1-.25-.25v-1.4c-.3-.15-.5-.5-.5-.85 0-.55.45-1 1-1s1 .45 1 1c0 .35-.2.7-.5.85zM7.5 4.5h-4V3c0-.25.25-.5.5-.5h3c.25 0 .5.25.5.5v1.5z" fill="#1E6393"/><path d="M10 4.5h-.5V3C9.5 1.6 8.4.5 7 .5H4C2.6.5 1.5 1.6 1.5 3v1.5H1c-.55 0-1 .45-1 1v6c0 .55.45 1 1 1h9c.55 0 1-.45 1-1v-6c0-.55-.45-1-1-1zM6 8.85v1.4c0 .15-.1.25-.25.25h-.5c-.15 0-.25-.1-.25-.25v-1.4c-.3-.15-.5-.5-.5-.85 0-.55.45-1 1-1s1 .45 1 1c0 .35-.2.7-.5.85zM7.5 4.5h-4V3c0-.25.25-.5.5-.5h3c.25 0 .5.25.5.5v1.5z" fill="#1E6393"/></svg>

<?xml version="1.0" encoding="utf-8"?><svg width="11" height="14" fill="none" xmlns="http://www.w3.org/2000/svg" viewBox="0 0 11 14"><path d="M10 5.5H9.5V4C9.5 2.6 8.4 1.5 7 1.5H4C2.6 1.5 1.5 2.6 1.5 4V5.5H1C0.45 5.5 0 5.95 0 6.5V12.5C0 13.05 0.45 13.5 1 13.5H10C10.55 13.5 11 13.05 11 12.5V6.5C11 5.95 10.55 5.5 10 5.5ZM6 9.84998V11.25C6 11.4 5.9 11.5 5.75 11.5H5.25C5.1 11.5 5 11.4 5 11.25V9.84998C4.7 9.69998 4.5 9.35 4.5 9C4.5 8.45 4.95 8 5.5 8C6.05 8 6.5 8.45 6.5 9C6.5 9.35 6.3 9.69998 6 9.84998ZM7.5 5.5H3.5V4C3.5 3.75 3.75 3.5 4 3.5H7C7.25 3.5 7.5 3.75 7.5 4V5.5Z" fill="#fff"/><path d="M10 5.5H9.5V4C9.5 2.6 8.4 1.5 7 1.5H4C2.6 1.5 1.5 2.6 1.5 4V5.5H1C0.45 5.5 0 5.95 0 6.5V12.5C0 13.05 0.45 13.5 1 13.5H10C10.55 13.5 11 13.05 11 12.5V6.5C11 5.95 10.55 5.5 10 5.5ZM6 9.84998V11.25C6 11.4 5.9 11.5 5.75 11.5H5.25C5.1 11.5 5 11.4 5 11.25V9.84998C4.7 9.69998 4.5 9.35 4.5 9C4.5 8.45 4.95 8 5.5 8C6.05 8 6.5 8.45 6.5 9C6.5 9.35 6.3 9.69998 6 9.84998ZM7.5 5.5H3.5V4C3.5 3.75 3.75 3.5 4 3.5H7C7.25 3.5 7.5 3.75 7.5 4V5.5Z" fill="#fff"/><path d="M10 4.5H9.5V3C9.5 1.6 8.4 0.5 7 0.5H4C2.6 0.5 1.5 1.6 1.5 3V4.5H1C0.45 4.5 0 4.95 0 5.5V11.5C0 12.05 0.45 12.5 1 12.5H10C10.55 12.5 11 12.05 11 11.5V5.5C11 4.95 10.55 4.5 10 4.5ZM6 8.84998V10.25C6 10.4 5.9 10.5 5.75 10.5H5.25C5.1 10.5 5 10.4 5 10.25V8.84998C4.7 8.69998 4.5 8.35 4.5 8C4.5 7.45 4.95 7 5.5 7C6.05 7 6.5 7.45 6.5 8C6.5 8.35 6.3 8.69998 6 8.84998ZM7.5 4.5H3.5V3C3.5 2.75 3.75 2.5 4 2.5H7C7.25 2.5 7.5 2.75 7.5 3V4.5Z" fill="#1E6393"/><path d="M10 4.5H9.5V3C9.5 1.6 8.4 0.5 7 0.5H4C2.6 0.5 1.5 1.6 1.5 3V4.5H1C0.45 4.5 0 4.95 0 5.5V11.5C0 12.05 0.45 12.5 1 12.5H10C10.55 12.5 11 12.05 11 11.5V5.5C11 4.95 10.55 4.5 10 4.5ZM6 8.84998V10.25C6 10.4 5.9 10.5 5.75 10.5H5.25C5.1 10.5 5 10.4 5 10.25V8.84998C4.7 8.69998 4.5 8.35 4.5 8C4.5 7.45 4.95 7 5.5 7C6.05 7 6.5 7.45 6.5 8C6.5 8.35 6.3 8.69998 6 8.84998ZM7.5 4.5H3.5V3C3.5 2.75 3.75 2.5 4 2.5H7C7.25 2.5 7.5 2.75 7.5 3V4.5Z" fill="#1E6393"/></svg>
